src/assets/duotone/Colorfilter.svg

<?xml version="1.0" encoding="UTF-8"?>
<svg width="24" height="24" viewBox="0 0 24 24" xmlns="http://www.w3.org/2000/svg">
 <path d="m14 16c0 1.77-0.77 3.37-2 4.46-1.06 0.96-2.46 1.54-4 1.54-3.31 0-6-2.69-6-6 0-2.76 1.88-5.1 4.42-5.79 0.69 1.74 2.17 3.08 4 3.58 0.5 0.14 1.03 0.21 1.58 0.21s1.08-0.07 1.58-0.21c0.27 0.68 0.42 1.43 0.42 2.21z" opacity=".6"/>
 <path d="m18 8c0 0.78-0.15 1.53-0.42 2.21-0.69 1.74-2.17 3.08-4 3.58-0.5 0.14-1.03 0.21-1.58 0.21s-1.08-0.07-1.58-0.21c-1.83-0.5-3.31-1.84-4-3.58-0.27-0.68-0.42-1.43-0.42-2.21 0-3.31 2.69-6 6-6s6 2.69 6 6z"/>
 <path d="m22 16c0 3.31-2.69 6-6 6-1.54 0-2.94-0.58-4-1.54 1.23-1.09 2-2.69 2-4.46 0-0.78-0.15-1.53-0.42-2.21 1.83-0.5 3.31-1.84 4-3.58 2.54 0.69 4.42 3.03 4.42 5.79z" opacity=".4"/>
</svg>

<svg width="24" height="24" viewBox="0 0 24 24"  xmlns="http://www.w3.org/2000/svg">
<path opacity="0.6" d="M14 16C14 17.77 13.23 19.37 12 20.46C10.94 21.42 9.54 22 8 22C4.69 22 2 19.31 2 16C2 13.24 3.88 10.9 6.42 10.21C7.11 11.95 8.59 13.29 10.42 13.79C10.92 13.93 11.45 14 12 14C12.55 14 13.08 13.93 13.58 13.79C13.85 14.47 14 15.22 14 16Z" />
<path d="M18 8C18 8.78 17.85 9.53 17.58 10.21C16.89 11.95 15.41 13.29 13.58 13.79C13.08 13.93 12.55 14 12 14C11.45 14 10.92 13.93 10.42 13.79C8.59 13.29 7.11 11.95 6.42 10.21C6.15 9.53 6 8.78 6 8C6 4.69 8.69 2 12 2C15.31 2 18 4.69 18 8Z" />
<path opacity="0.4" d="M22 16C22 19.31 19.31 22 16 22C14.46 22 13.06 21.42 12 20.46C13.23 19.37 14 17.77 14 16C14 15.22 13.85 14.47 13.58 13.79C15.41 13.29 16.89 11.95 17.58 10.21C20.12 10.9 22 13.24 22 16Z" />
</svg>
